svgs/duotone/person-walking-arrow-loop-left.svg

<svg xmlns="http://www.w3.org/2000/svg" viewBox="0 0 640 512"><!--! Font Awesome Pro 6.3.0 by @fontawesome - https://fontawesome.com License - https://fontawesome.com/license (Commercial License) Copyright 2023 Fonticons, Inc. --><defs><style>.fa-secondary{opacity:.4}</style></defs><path class="fa-primary" d="M486.6 454.6C474.1 467.1 453.9 467.1 441.4 454.6L361.4 374.6C348.9 362.1 348.9 341.9 361.4 329.4L441.4 249.4C453.9 236.9 474.1 236.9 486.6 249.4C499.1 261.9 499.1 282.1 486.6 294.6L461.3 320H480C533 320 576 277 576 224C576 170.1 533 128 480 128H352C334.3 128 320 113.7 320 96C320 78.33 334.3 64 352 64H480C568.4 64 640 135.6 640 224C640 312.4 568.4 384 480 384H461.3L486.6 409.4C499.1 421.9 499.1 442.1 486.6 454.6V454.6z"/><path class="fa-secondary" d="M256 48C256 74.51 234.5 96 208 96C181.5 96 160 74.51 160 48C160 21.49 181.5 0 208 0C234.5 0 256 21.49 256 48zM126.5 199.3C125.6 199.7 124.6 200.1 123.7 200.5L112.7 205.4C97.41 212.2 85.42 224.6 79.22 240.1L77.71 243.9C71.15 260.3 52.53 268.3 36.12 261.7C19.71 255.1 11.73 236.5 18.29 220.1L19.8 216.3C32.19 185.4 56.18 160.5 86.66 146.9L97.66 142C118.5 132.8 140.1 128 163.7 128C208.3 128 248.5 154.8 265.6 195.9L280.1 232.7L302.3 243.4C318.1 251.3 324.5 270.5 316.6 286.3C308.7 302.1 289.5 308.5 273.7 300.6L247 287.3C236.7 282.1 228.6 273.4 224.2 262.8L214.6 239.8L195.3 305.3L244.8 359.4C250.2 365.3 254.1 372.4 256 380.2L279 472.2C283.3 489.4 272.9 506.8 255.8 511C238.6 515.3 221.2 504.9 216.1 487.8L194.9 399.6L124.3 322.5C109.5 306.4 103.1 283.9 109.6 262.8L126.5 199.3zM68.73 398L93.69 335.6C95.84 338.6 98.16 341.4 100.7 344.2L141.4 388.6L126.9 424.8C124.5 430.9 120.9 436.4 116.3 440.9L54.63 502.6C42.13 515.1 21.87 515.1 9.372 502.6C-3.124 490.1-3.124 469.9 9.372 457.4L68.73 398z"/></svg>

<svg xmlns="http://www.w3.org/2000/svg" viewBox="0 0 640 512"><!--! Font Awesome Pro 6.4.0 by @fontawesome - https://fontawesome.com License - https://fontawesome.com/license (Commercial License) Copyright 2023 Fonticons, Inc. --><defs><style>.fa-secondary{opacity:.4}</style></defs><path class="fa-primary" d="M486.6 454.6c-12.5 12.5-32.8 12.5-45.3 0l-80-80c-12.5-12.5-12.5-32.8 0-45.3l80-80c12.5-12.5 32.8-12.5 45.3 0s12.5 32.8 0 45.3L461.3 320H480c53 0 96-43 96-96s-43-96-96-96l-128 0c-17.7 0-32-14.3-32-32s14.3-32 32-32l128 0c88.4 0 160 71.6 160 160s-71.6 160-160 160H461.3l25.4 25.4c12.5 12.5 12.5 32.8 0 45.3zM160 48a48 48 0 1 1 96 0 48 48 0 1 1 -96 0zM126.5 199.3c-1 .4-1.9 .8-2.9 1.2l-8 3.5c-16.4 7.3-29 21.2-34.7 38.2l-2.6 7.8c-5.6 16.8-23.7 25.8-40.5 20.2s-25.8-23.7-20.2-40.5l2.6-7.8c11.4-34.1 36.6-61.9 69.4-76.5l8-3.5c20.8-9.2 43.3-14 66.1-14c44.6 0 84.8 26.8 101.9 67.9L281 232.7l21.4 10.7c15.8 7.9 22.2 27.1 14.3 42.9s-27.1 22.2-42.9 14.3L247 287.3c-10.3-5.2-18.4-13.8-22.8-24.5l-9.6-23-19.3 65.5 49.5 54c5.4 5.9 9.2 13 11.2 20.8l23 92.1c4.3 17.1-6.1 34.5-23.3 38.8s-34.5-6.1-38.8-23.3l-22-88.1-70.7-77.1c-14.8-16.1-20.3-38.6-14.7-59.7l16.9-63.5zM68.7 398l25-62.4c2.1 3 4.5 5.8 7 8.6l40.7 44.4-14.5 36.2c-2.4 6-6 11.5-10.6 16.1L54.6 502.6c-12.5 12.5-32.8 12.5-45.3 0s-12.5-32.8 0-45.3L68.7 398z"/></svg>
